X: 21
T: The Silver Spear
R:reel
N:Should not be confused with The Silver Spire
M:C|
K:D
"D"FA~A2 BAFA|dfed "G"BcdA|"D"FA~A2 BAFA|dfed "G"B2AG|
"D"FA~A2 BAFA|dfed "G"Bdef|"A7(G)"g3e "D"~f3e|dfed "A"B2A2:|
|:"D"f~a3 bfaf|"G"gfed Bcde|"D"f~a3 bfaf|"G"gfed B2A2|
"D"f~a3 bfaf|"G"gfed Bdef|"A7(G)"g3e "D"~f3e|dfed "A"B2A2:|


